X: 3
T: The Knotted Cord
R: reel
M: 4/4
L: 1/8
K: Ador
A3B AGEG|A2 Bd edBA|G2 GA GEDE|G2 BG dGBG|A2 AB AGEG|A2 Bd edBA|GABd gfge|1 dBGA BAAG:|2 dBGA BAA2||ea a2 ea a2|eaab aged|eg g2 eg g2|gfga gedB|ea a2 ea a2|eaab aged|edef g2 ge|1 dBGA BAA2:|2 dBGA BAAG||


Tune 921	Setting 14109

